Adwaita++/apps/16/deepin-editor.svg

<svg height="16" viewBox="0 0 16 16" width="16" xmlns="http://www.w3.org/2000/svg">
  <path d="m.49999978 5.0504734v-3.390814h6.42066002v7.4486755h-1.60517c.18451.9635141.71956 1.6861401 1.60517 2.1678971v2.723768c-2.17714-.444698-3.79152-1.417463-4.84317-2.918322-1.05167-1.5008611-1.57749002-3.5112411-1.57749002-6.0312046zm8.57933002 0v-3.390814h6.4206702v7.4486755h-1.60516c.0738.555873.22139.9820371.4428 1.2785031.2214.296466.60885.592928 1.16236.889394v2.723768c-2.17714-.444698-3.79151-1.417463-4.84318-2.918322-1.0516602-1.5008611-1.5774902-3.5112411-1.5774902-6.0312046z" fill="#474747" fill-rule="evenodd"/>
</svg>

<svg xmlns="http://www.w3.org/2000/svg" width="16" height="16" version="1.1" viewBox="0 0 16 16">
 <path style="fill:#474747;fill-rule:evenodd" d="M 0.49999978,5.0504734 V 1.6596594 H 6.9206598 v 7.4486755 h -1.60517 c 0.18451,0.9635141 0.71956,1.6861401 1.60517,2.1678971 V 14 c -2.17714,-0.444698 -3.79152,-1.417463 -4.84317,-2.918322 C 1.0258198,9.5808169 0.49999978,7.5704369 0.49999978,5.0504734 Z m 8.57933002,0 V 1.6596594 H 15.5 v 7.4486755 h -1.60516 c 0.0738,0.555873 0.22139,0.9820371 0.4428,1.2785031 0.2214,0.296466 0.60885,0.592928 1.16236,0.889394 V 14 C 13.32286,13.555302 11.70849,12.582537 10.65682,11.081678 9.6051598,9.5808169 9.0793298,7.5704369 9.0793298,5.0504734 Z"/>
</svg>
